X: 10151
T: LICK THE LADLE, SANDY.
R: Reel.
%R: reel
B: W. Hamilton "Universal Tune-Book" Vol. 1 Glasgow 1844 p.15 #1
S: http://imslp.org/wiki/Hamilton's_Universal_Tune-Book_(Various)
Z: 2016 John Chambers <jc:trillian.mit.edu>
M: C
L: 1/8
K: A
% - - - - - - - - - - - - - - - - - - - - - - - - -
f !segno!|:\
eAcA eAcA | =G/G/G gB d2f2 |\
eAcA eAcA | A/A/A ac e2f2 :|\
ef/g/ ae fdec | B/B/B =gB d2f2 |
ef/g/ ae fdec | e/e/e ac e2f2 |\
ef/g/ ae fdec | B=gdB GABA |\
ABcd ef=ge | fdgB A2f2 !segno!|]
% - - - - - - - - - - - - - - - - - - - - - - - - -

%%sep 1 1 500
%%sep 1 1 500

